X:1
T:I Feel Like Traveling On
T:I Feel Like Traveling On
T:Arranged by James D. Vaughan (1865-1941)
T:William Hunter, 1838
T:Public Domain Courtesy of the Cyber Hymnal™
C:Arranged by James D. Vaughan (1865-1941)
Z:Public Domain
Z:Courtesy of the Cyber Hymnal™
%%score ( 1 2 ) ( 3 4 )
L:1/8
Q:1/4=113
M:4/4
K:F
V:1 treble 
V:2 treble 
V:3 bass 
V:4 bass 
V:1
 [CF]2 | [FA]2 [FA]2 (AG) [CF]2 | [FA]2 [Fc]2 [Fc]2 [FA]2 | [Fc]2 [Fc]2 [FA][CG] [DF]2 | %4
w: 1.~My|heav’n- ly home * is|bright and fair. I|feel like tra- vel- ing|
w: 2.~Its|glit- t’ring tow’rs * the|sun out- shine. I|feel like tra- vel- ing|
w: 3.~Let|oth- ers seek * a|home be- low— I|feel like tra- vel- ing|
w: 4~The|Lord has been * so|good to me. I|feel like tra- vel- ing|
 [EG]6 [CF]2 | [FA]2 [FA]2 (AG) [CF]2 | [FA]2 [Fc]2 [Fc]2 [FA]2 | [Fc]2 [Fc]2 [FA]F [EG]2 | %8
w: on. Nor|pain, nor death * can|en- ter there, I|feel like tra- vel- ing|
w: on. That|heav’n- ly man- * sion|shall be mine. I|feel like tra- vel- ing|
w: on. Which|flames de- vour * or|waves o’er- flow, I|feel like tra- vel- ing|
w: on. Un-|til that bless- * èd|home I see, I|feel like tra- vel- ing|
 [CF]6 ||"^Refrain" F[FG] | [FA]2 [FA]2 [FA][FG] F2 | c6 [FA]2 | [Fc]2 [Fc]2 [FA][CG] [DF]2 | %13
w: on.|||||
w: on.|Yes, I|feel like trav- el- ing|on. I|feel like trav- el- ing|
w: on.|||||
w: on.|||||
 G6 [CF]2 | [FA]2 [FA]2 (AG) [CF]2 | [FA]2 [Fc]2 [Fc]2 [FA]2 | [Fc]2 [Fc]2 [FA]F [EG]2 | [CF]6 |] %18
w: |||||
w: on. My|heav’n- ly home * is|bright and fair. I|feel like trav- el- ing|on.|
w: |||||
w: |||||
V:2
 x2 | x4 F2 x2 | x8 | x8 | x8 | x4 F2 x2 | x8 | x5 F x2 | x6 || F x | x6 F2 | (FF E2 F2) x2 | x8 | %13
 (EE E2 E2) x2 | x4 F2 x2 | x8 | x5 F x2 | x6 |] %18
V:3
 [F,A,]2 | [F,C]2 [F,C]2 (CB,) [F,A,]2 | [F,C]2 [F,A,]2 [F,A,]2 [F,C]2 | %3
w: ~|~ ~ ~ * ~|~ ~ ~ ~|
 [F,A,]2 [F,A,]2 [F,C][E,C] [D,=B,]2 | [C,C]6 [F,A,]2 | [F,C]2 [F,C]2 (CB,) [F,A,]2 | %6
w: ~ ~ ~ ~ ~|~ ~|~ ~ ~ * ~|
 [F,C]2 [F,A,]2 [F,A,]2 F,2 | [C,A,]2 [C,A,]2 [C,C][C,A,] [C,B,]2 | [F,,A,]6 || [F,A,][F,B,] | %10
w: ~ ~ ~ ~|~ ~ ~ ~ ~|~|Yes, I|
 [F,C]2 [F,C]2 [F,C][F,B,] [F,A,]2 | [F,A,][F,A,] [C,G,]2 [F,A,]2 F,2 | %12
w: feel like trav- el- ing,|trav- el- ing on. I|
 [F,A,]2 [F,A,]2 [F,C][E,C] [D,=B,]2 | [C,C][C,C] [C,C]2 [C,C]2 [F,A,]2 | %14
w: feel like trav- el- ing,|trav- el- ing on. *|
 [F,C]2 [F,C]2 (CB,) [F,A,]2 | [F,C]2 [F,A,]2 [F,A,]2 F,2 | [C,A,]2 [C,A,]2 [C,C][C,A,] [C,B,]2 | %17
w: |||
 [F,,A,]6 |] %18
w: |
V:4
 x2 | x4 F,2 x2 | x8 | x8 | x8 | x4 F,2 x2 | x6 F,2 | x8 | x6 || x2 | x8 | x6 F,2 | x8 | x8 | %14
 x4 F,2 x2 | x6 F,2 | x8 | x6 |] %18

